_PROJECT/BUILD/img/icons/ic-rail.svg

<svg xmlns="http://www.w3.org/2000/svg" width="26" height="32"><path d="M13 0a13 13 0 0 1 10.08 21.2C20.7 24.13 13 32 13 32S5.24 24.1 2.86 21.14A13 13 0 0 1 13 0z" fill-rule="evenodd" fill="#0068b8"/><circle cx="13" cy="13" r="11" fill="#fff"/><path d="M19.62 20.42l-2.49-4.54a1.48 1.48 0 0 0 1.23-1.45V7.74a3.24 3.24 0 0 0-3.24-3.24h-4.24a3.28 3.28 0 0 0-3.27 3.27v6.66a1.45 1.45 0 0 0 1.23 1.45l-2.46 4.54a.73.73 0 0 0 .3 1 .55.55 0 0 0 .32.08.72.72 0 0 0 .63-.37l.22-.37h10.28l.22.37a.69.69 0 0 0 .63.37 1.09 1.09 0 0 0 .33-.07.73.73 0 0 0 .31-1.01zm-3.5-3.35H9.88l.63-1.15h5zM16 14.58a1.08 1.08 0 1 1 1.08-1.08A1.1 1.1 0 0 1 16 14.58zm-7.09-6.4A2.07 2.07 0 0 1 11 6.1h4a2.1 2.1 0 0 1 2.08 2.08V10a.72.72 0 0 1-.74.71H9.65a.71.71 0 0 1-.7-.71V8.21zM10 12.39a1.08 1.08 0 1 1-1.08 1.08A1.08 1.08 0 0 1 10 12.39zm-1.54 7.25l.82-1.45h7.44l.82 1.45z" fill="#0068b8"/></svg>

<svg xmlns="http://www.w3.org/2000/svg" width="26" height="32" viewBox="0 0 26 32"><defs><style>.cls-1,.cls-3{fill:#0068b8;}.cls-1{fill-rule:evenodd;}.cls-2{fill:#fff;}</style></defs><title>ic-rail</title><g id="bk"><path class="cls-1" d="M13,0a13,13,0,0,1,10.08,21.2C20.7,24.13,13,32,13,32S5.24,24.1,2.86,21.14A13,13,0,0,1,13,0Z" transform="translate(0 0)"/><circle class="cls-2" cx="13" cy="13" r="11"/></g><g id="rail"><path class="cls-3" d="M19.62,20.42l-2.49-4.54a1.48,1.48,0,0,0,1.23-1.45V7.74A3.24,3.24,0,0,0,15.12,4.5H10.88A3.28,3.28,0,0,0,7.61,7.77v6.66a1.45,1.45,0,0,0,1.23,1.45L6.38,20.42a.73.73,0,0,0,.3,1A.55.55,0,0,0,7,21.5a.72.72,0,0,0,.63-.37l.22-.37H18.13l.22.37a.69.69,0,0,0,.63.37,1.09,1.09,0,0,0,.33-.07A.73.73,0,0,0,19.62,20.42Zm-3.5-3.35H9.88l.63-1.15h5ZM16,14.58a1.08,1.08,0,1,1,1.08-1.08A1.1,1.1,0,0,1,16,14.58ZM8.91,8.18A2.07,2.07,0,0,1,11,6.1H15a2.1,2.1,0,0,1,2.08,2.08V10a.72.72,0,0,1-.74.71H9.65A.71.71,0,0,1,8.95,10l0-1.79ZM10,12.39a1.08,1.08,0,1,1-1.08,1.08A1.08,1.08,0,0,1,10,12.39ZM8.46,19.64l.82-1.45h7.44l.82,1.45Z" transform="translate(0 0)"/></g></svg>
